packages/kaspersky-hexa-ui-icons/src/iconsSVGs/48/Social.svg

<svg xmlns="http://www.w3.org/2000/svg" width="48" height="48" fill="none" viewBox="0 0 48 48"><path fill="currentColor" fill-rule="evenodd" d="M43 26c-.015 0-.028-.004-.043-.004l-.018-.006c-.024-.005-.048-.001-.073-.004C41.275 25.915 40 24.608 40 23c0-1.654 1.346-3 3-3s3 1.346 3 3-1.346 3-3 3m0-8c-.232 0-.453.038-.677.068a1 1 0 0 0-.136.014C39.817 18.474 38 20.521 38 23c0 2.757 2.243 5 5 5s5-2.243 5-5-2.243-5-5-5M5 26c-1.654 0-3-1.346-3-3s1.346-3 3-3 3 1.346 3 3-1.346 3-3 3m5-3c0-2.5-1.85-4.559-4.249-4.924a.8.8 0 0 0-.083-.009C5.447 18.037 5.229 18 5 18c-2.757 0-5 2.243-5 5s2.243 5 5 5 5-2.243 5-5m30.29 10.76c.46.309.58.929.27 1.389-.19.29-.51.441-.831.441-.189 0-.389-.061-.559-.17-.45-.311-.58-.941-.271-1.391h.011c.3-.46.92-.579 1.38-.269m2.3-2.441c-.16.391-.54.631-.941.631-.12 0-.239-.02-.359-.07-.52-.21-.77-.79-.561-1.3.201-.52.781-.77 1.291-.56.52.2.77.78.57 1.299M34.88 9.67c-.441-.33-.53-.96-.191-1.4.331-.44.96-.52 1.401-.19.439.34.519.96.189 1.399-.199.261-.489.401-.8.401-.209 0-.419-.07-.599-.21m5.059 5.99c-.25-.49-.069-1.1.42-1.35.491-.26 1.101-.07 1.351.41v.009c.26.481.069 1.09-.41 1.351-.151.069-.31.109-.47.109-.36 0-.71-.189-.891-.54zM31.01 6.319c.23-.509.82-.719 1.33-.489.5.23.72.819.49 1.319-.17.371-.53.591-.91.591-.141 0-.28-.03-.42-.091-.5-.229-.721-.83-.49-1.33m6.73 6.071c-.36-.42-.31-1.05.119-1.411.42-.359 1.051-.309 1.401.121.36.42.309 1.049-.111 1.4-.189.16-.42.24-.649.24-.28 0-.561-.12-.76-.35M6.29 14.71c.26-.49.859-.67 1.35-.42.49.26.679.859.42 1.359-.18.341-.531.531-.89.531-.15 0-.311-.04-.46-.111-.49-.259-.681-.869-.42-1.359m2.569-2.21c-.42-.36-.479-.99-.119-1.41s.989-.481 1.409-.12c.42.36.471.99.121 1.41-.201.229-.48.349-.77.349-.23 0-.45-.069-.641-.229m6.321-5.351c-.23-.5-.01-1.099.5-1.33.5-.229 1.09-.009 1.32.491.229.509.01 1.1-.49 1.33-.14.06-.281.089-.42.089-.38 0-.74-.209-.91-.58m-3.451 2.33c-.339-.439-.25-1.069.191-1.41.439-.329 1.07-.239 1.399.201.33.44.25 1.06-.189 1.4-.18.13-.401.2-.61.2-.3 0-.59-.141-.791-.391M24 2c1.654 0 3 1.346 3 3s-1.346 3-3 3-3-1.346-3-3 1.346-3 3-3m-4.96 3.42c0 .008.005.015.005.021C19.272 7.989 21.395 10 24 10s4.727-2.01 4.955-4.557c0-.007.005-.015.005-.023 0-.003-.002-.005-.002-.008C28.97 5.273 29 5.141 29 5c0-2.757-2.243-5-5-5s-5 2.243-5 5c0 .141.03.273.042.412 0 .003-.002.005-.002.008M6.71 31.88c-.12.05-.24.07-.37.07-.39 0-.771-.24-.93-.631h.01c-.21-.519.04-1.099.55-1.299.52-.21 1.099.04 1.3.56.209.51-.05 1.1-.56 1.3m1.56 3.71c-.32 0-.64-.16-.831-.441-.309-.46-.189-1.08.271-1.389.46-.31 1.08-.191 1.39.269.299.45.19 1.08-.27 1.391-.17.109-.37.17-.56.17M38 46H10v-3.861c0-2.298 1.558-4.292 3.787-4.851l2.872-.718c1.743-.435 3.386-1.75 4.391-3.416.852.524 1.828.846 2.95.846 1.138 0 2.123-.332 2.984-.867 1.006 1.684 2.637 3.008 4.357 3.437l2.872.718c2.229.559 3.787 2.553 3.787 4.851zM24 18c3.032 0 5.5 2.423 5.5 5.4 0 2.906-1.661 8.6-5.5 8.6s-5.5-5.694-5.5-8.6c0-2.977 2.468-5.4 5.5-5.4m13.638 18.906c-.003-.002-.005-.005-.008-.007l-.003-.001c-.82-.723-1.811-1.27-2.93-1.549l-2.872-.718c-1.3-.326-2.59-1.447-3.3-2.819 2.059-2.341 2.975-6.035 2.975-8.412 0-4.081-3.364-7.4-7.5-7.4s-7.5 3.319-7.5 7.4c0 2.389.926 6.107 3.006 8.446-.708 1.346-2.008 2.454-3.331 2.785l-2.872.718A6.989 6.989 0 0 0 8 42.139V48h32v-5.861c0-2.06-.9-3.938-2.362-5.233" clip-rule="evenodd"/></svg>

<svg width="48" height="48" viewBox="0 0 48 48" fill="none" xmlns="http://www.w3.org/2000/svg">
<path fill-rule="evenodd" clip-rule="evenodd" d="M43 26C42.985 26 42.972 25.996 42.957 25.996L42.939 25.99C42.915 25.985 42.891 25.989 42.866 25.986C41.275 25.915 40 24.608 40 23C40 21.346 41.346 20 43 20C44.654 20 46 21.346 46 23C46 24.654 44.654 26 43 26ZM43 18C42.768 18 42.547 18.038 42.323 18.068C42.276 18.07 42.231 18.074 42.187 18.082C39.817 18.474 38 20.521 38 23C38 25.757 40.243 28 43 28C45.757 28 48 25.757 48 23C48 20.243 45.757 18 43 18ZM5 26C3.346 26 2 24.654 2 23C2 21.346 3.346 20 5 20C6.654 20 8 21.346 8 23C8 24.654 6.654 26 5 26ZM10 23C10 20.5 8.15 18.441 5.751 18.076C5.724 18.072 5.696 18.068 5.668 18.067C5.447 18.037 5.229 18 5 18C2.243 18 0 20.243 0 23C0 25.757 2.243 28 5 28C7.757 28 10 25.757 10 23ZM40.29 33.76C40.75 34.069 40.87 34.689 40.56 35.149C40.37 35.439 40.05 35.59 39.729 35.59C39.54 35.59 39.34 35.529 39.17 35.42C38.72 35.109 38.59 34.479 38.899 34.029H38.91C39.21 33.569 39.83 33.45 40.29 33.76ZM42.59 31.319C42.43 31.71 42.05 31.95 41.649 31.95C41.529 31.95 41.41 31.93 41.29 31.88C40.77 31.67 40.52 31.09 40.729 30.58C40.93 30.06 41.51 29.81 42.02 30.02C42.54 30.22 42.79 30.8 42.59 31.319ZM34.88 9.67C34.439 9.34 34.35 8.71 34.689 8.27C35.02 7.83 35.649 7.75 36.09 8.08C36.529 8.42 36.609 9.04 36.279 9.479C36.08 9.74 35.79 9.88 35.479 9.88C35.27 9.88 35.06 9.81 34.88 9.67ZM39.939 15.66C39.689 15.17 39.87 14.56 40.359 14.31C40.85 14.05 41.46 14.24 41.71 14.72V14.729C41.97 15.21 41.779 15.819 41.3 16.08C41.149 16.149 40.99 16.189 40.83 16.189C40.47 16.189 40.12 16 39.939 15.649V15.66ZM31.01 6.319C31.24 5.81 31.83 5.6 32.34 5.83C32.84 6.06 33.06 6.649 32.83 7.149C32.66 7.52 32.3 7.74 31.92 7.74C31.779 7.74 31.64 7.71 31.5 7.649C31 7.42 30.779 6.819 31.01 6.319ZM37.74 12.39C37.38 11.97 37.43 11.34 37.859 10.979C38.279 10.62 38.91 10.67 39.26 11.1C39.62 11.52 39.569 12.149 39.149 12.5C38.96 12.66 38.729 12.74 38.5 12.74C38.22 12.74 37.939 12.62 37.74 12.39ZM6.29 14.71C6.55 14.22 7.149 14.04 7.64 14.29C8.13 14.55 8.319 15.149 8.06 15.649C7.88 15.99 7.529 16.18 7.17 16.18C7.02 16.18 6.859 16.14 6.71 16.069C6.22 15.81 6.029 15.2 6.29 14.71ZM8.859 12.5C8.439 12.14 8.38 11.51 8.74 11.09C9.1 10.67 9.729 10.609 10.149 10.97C10.569 11.33 10.62 11.96 10.27 12.38C10.069 12.609 9.79 12.729 9.5 12.729C9.27 12.729 9.05 12.66 8.859 12.5ZM15.18 7.149C14.95 6.649 15.17 6.05 15.68 5.819C16.18 5.59 16.77 5.81 17 6.31C17.229 6.819 17.01 7.41 16.51 7.64C16.37 7.7 16.229 7.729 16.09 7.729C15.71 7.729 15.35 7.52 15.18 7.149ZM11.729 9.479C11.39 9.04 11.479 8.41 11.92 8.069C12.359 7.74 12.99 7.83 13.319 8.27C13.649 8.71 13.569 9.33 13.13 9.67C12.95 9.8 12.729 9.87 12.52 9.87C12.22 9.87 11.93 9.729 11.729 9.479ZM24 2C25.654 2 27 3.346 27 5C27 6.654 25.654 8 24 8C22.346 8 21 6.654 21 5C21 3.346 22.346 2 24 2ZM19.04 5.42C19.04 5.428 19.045 5.435 19.045 5.441C19.272 7.989 21.395 10 24 10C26.605 10 28.727 7.99 28.955 5.443C28.955 5.436 28.96 5.428 28.96 5.42C28.96 5.417 28.958 5.415 28.958 5.412C28.97 5.273 29 5.141 29 5C29 2.243 26.757 0 24 0C21.243 0 19 2.243 19 5C19 5.141 19.03 5.273 19.042 5.412C19.042 5.415 19.04 5.417 19.04 5.42ZM6.71 31.88C6.59 31.93 6.47 31.95 6.34 31.95C5.95 31.95 5.569 31.71 5.41 31.319H5.42C5.21 30.8 5.46 30.22 5.97 30.02C6.49 29.81 7.069 30.06 7.27 30.58C7.479 31.09 7.22 31.68 6.71 31.88ZM8.27 35.59C7.95 35.59 7.63 35.43 7.439 35.149C7.13 34.689 7.25 34.069 7.71 33.76C8.17 33.45 8.79 33.569 9.1 34.029C9.399 34.479 9.29 35.109 8.83 35.42C8.66 35.529 8.46 35.59 8.27 35.59ZM38 46H10V42.139C10 39.841 11.558 37.847 13.787 37.288L16.659 36.57C18.402 36.135 20.045 34.82 21.05 33.154C21.902 33.678 22.878 34 24 34C25.138 34 26.123 33.668 26.984 33.133C27.99 34.817 29.621 36.141 31.341 36.57L34.213 37.288C36.442 37.847 38 39.841 38 42.139V46ZM24 18C27.032 18 29.5 20.423 29.5 23.4C29.5 26.306 27.839 32 24 32C20.161 32 18.5 26.306 18.5 23.4C18.5 20.423 20.968 18 24 18ZM37.638 36.906C37.635 36.904 37.633 36.901 37.63 36.899L37.627 36.898C36.807 36.175 35.816 35.628 34.697 35.349L31.825 34.631C30.525 34.305 29.235 33.184 28.525 31.812C30.584 29.471 31.5 25.777 31.5 23.4C31.5 19.319 28.136 16 24 16C19.864 16 16.5 19.319 16.5 23.4C16.5 25.789 17.426 29.507 19.506 31.846C18.798 33.192 17.498 34.3 16.175 34.631L13.303 35.349C10.181 36.129 8 38.921 8 42.139V48H40V42.139C40 40.079 39.1 38.201 37.638 36.906Z"  fill="currentColor"/>
</svg>
